src/components/Icon/utils/svgsOptimized/paragraph.svg

<svg width="24" height="24" viewBox="0 0 24 24"  xmlns="http://www.w3.org/2000/svg">
<path d="M17.67 6H10.55C8.25001 6 6.24001 7.71 6.02001 10C5.77001 12.63 7.84001 14.85 10.42 14.85H11.25V17.67C11.25 17.85 11.4 18 11.58 18H12.42C12.6 18 12.75 17.85 12.75 17.67V7.2H14.4V17.67C14.4 17.85 14.55 18 14.73 18H15.57C15.75 18 15.9 17.85 15.9 17.67V7.2H17.67C17.85 7.2 18 7.05 18 6.87V6.33C18 6.15 17.85 6 17.67 6ZM11.25 13.65H10.61C9.58001 13.65 8.59001 12.98 8.02001 12.08C7.69001 11.61 7.50001 11.04 7.50001 10.42C7.50001 9.8 7.69001 9.23 8.02001 8.76C8.60001 7.86 9.58001 7.19 10.61 7.19H11.25V13.64V13.65Z" />
</svg>

<?xml version="1.0" encoding="utf-8"?><svg width="24" height="24" xmlns="http://www.w3.org/2000/svg" viewBox="0 0 24 24"><path d="M17.67 6h-7.12c-2.3 0-4.31 1.71-4.53 4a4.424 4.424 0 0 0 4.4 4.85h.83v2.82c0 .18.15.33.33.33h.84c.18 0 .33-.15.33-.33V7.2h1.65v10.47c0 .18.15.33.33.33h.84c.18 0 .33-.15.33-.33V7.2h1.77c.18 0 .33-.15.33-.33v-.54c0-.18-.15-.33-.33-.33Zm-6.42 7.65h-.64c-1.03 0-2.02-.67-2.59-1.57a2.87 2.87 0 0 1-.52-1.66c0-.62.19-1.19.52-1.66.58-.9 1.56-1.57 2.59-1.57h.64v6.46Z"/></svg>
